icons/desktop/16/svg/color-picker-16.svg

<svg width="16" height="16" viewBox="0 0 16 16" fill="none" xmlns="http://www.w3.org/2000/svg">
<path fill-rule="evenodd" clip-rule="evenodd" d="M10.1182 1.00121C11.1448 0.282525 12.5524 0.39542 13.4541 1.2971L14.2354 2.07738C15.1971 3.03913 15.2609 4.57687 14.376 5.61351C13.8958 6.17597 13.3919 6.74613 12.8652 7.32347L13.3652 7.82347C13.6578 8.11639 13.658 8.59124 13.3652 8.88402C13.0724 9.17636 12.5975 9.17643 12.3047 8.88402L11.8418 8.42113C11.204 9.09025 10.5351 9.76649 9.83203 10.4446C8.76217 11.4758 7.70485 12.4292 6.67285 13.3078L5.65039 14.1614C5.35147 14.4063 4.98332 14.5324 4.60742 14.5325H1.75C1.33594 14.5325 1.00025 14.1965 1 13.7825V10.925C1 10.5489 1.12588 10.1802 1.37109 9.88109C2.4762 8.52934 3.71148 7.1264 5.08691 5.70042C5.76551 4.99721 6.44111 4.32702 7.11035 3.68871L6.64844 3.22679C6.35572 2.93402 6.35596 2.45915 6.64844 2.16624C6.94134 1.87339 7.41611 1.87337 7.70898 2.16624L8.20703 2.66429C8.78411 2.13757 9.35551 1.63527 9.91797 1.1555L10.1182 1.00121ZM8.1709 4.75023C7.50835 5.38163 6.83917 6.04489 6.16699 6.74144C4.82089 8.13699 3.61186 9.50944 2.53125 10.8313C2.51246 10.8542 2.5 10.8852 2.5 10.925V13.0325H4.60742C4.64691 13.0324 4.67642 13.0198 4.69922 13.0012L4.7002 13.0002C6.02202 11.9186 7.39461 10.7104 8.79004 9.36546C9.48684 8.69347 10.1488 8.02268 10.7803 7.3596L8.1709 4.75023Z" fill="black"/>
</svg>

<!-- This Source Code Form is subject to the terms of the Mozilla Public
   - License, v. 2.0. If a copy of the MPL was not distributed with this
   - file, You can obtain one at http://mozilla.org/MPL/2.0/. -->
<svg xmlns="http://www.w3.org/2000/svg" width="16" height="16" fill="context-fill" fill-opacity="context-fill-opacity" viewBox="0 0 16 16">
    <path fill-rule="evenodd" d="M10.118 1.001a2.605 2.605 0 0 1 3.336.296l.781.78c.962.962 1.026 2.5.141 3.537q-.72.843-1.51 1.71l.5.5a.75.75 0 0 1-1.061 1.06l-.463-.463a68 68 0 0 1-5.17 4.887l-1.022.853a1.64 1.64 0 0 1-1.043.372H1.75a.75.75 0 0 1-.75-.75v-2.858c0-.376.126-.745.371-1.044a68 68 0 0 1 5.74-6.192l-.463-.462a.75.75 0 0 1 1.061-1.06l.498.497a68 68 0 0 1 1.711-1.509zm-1.947 3.75a67.5 67.5 0 0 0-5.64 6.08.14.14 0 0 0-.031.094v2.108h2.107A.14.14 0 0 0 4.7 13H4.7a66.403 66.403 0 0 0 6.08-5.64z" clip-rule="evenodd" />
</svg>
